svg/format_quote_open.svg

<svg xmlns="http://www.w3.org/2000/svg" viewBox="0 0 24 24"><path d="m10 7-2 4h3v6H5v-6l2-4zm8 0-2 4h3v6h-6v-6l2-4z"/></svg>

<?xml version="1.0" encoding="UTF-8"?><!DOCTYPE svg PUBLIC "-//W3C//DTD SVG 1.1//EN" "http://www.w3.org/Graphics/SVG/1.1/DTD/svg11.dtd"><svg xmlns="http://www.w3.org/2000/svg" xmlns:xlink="http://www.w3.org/1999/xlink" version="1.1" id="mdi-format-quote-open" width="24" height="24" viewBox="0 0 24 24"><path d="M10,7L8,11H11V17H5V11L7,7H10M18,7L16,11H19V17H13V11L15,7H18Z" /></svg>
